X:35
T:Jigg. TJD.35
M:6/8
L:1/8
Q:1/4=110
S:T.J.Dixon MS1, Lincolnshire, 1798
R:jig
N:Repeat mark added at end
C:(Miller)
A:Lincolnshire, Holton le Moor
Z:vmp.R.Greig2010
K:G
G2G GFG|[A2F2][AF][A3F3]|B2B Bcd|edc BcA|!
G2G GFG|[A2F2][AF][A3F3]|BcB AGF|G2GG3:|!
|:ddd ddd|dgbd3|ccc ccc|cfac3|!
BBB Bcd|AAA ABc|BAA dcB|[B3G3]”^Da Capo”[A3F3]:|]

